packages/icons/src/ce-visibility.svg

<svg width="32" height="31" viewBox="0 0 32 31" fill="none" xmlns="http://www.w3.org/2000/svg">
<g opacity="0.3">
<path d="M0 24.9893H3.99007V0H0V24.9893ZM7.98014 24.9893H11.9702V7.40425H7.98014V24.9893ZM15.9603 14.8085V24.9893H19.9503V14.8085H15.9603Z" fill="#0278D5"/>
</g>
<g clip-path="url(#clip0)">
<path d="M30.0139 27.1781L25.8162 23.2834C26.8238 21.8743 27.4136 20.1872 27.4136 18.3735C27.4136 13.4591 23.1045 9.46094 17.8079 9.46094C12.5113 9.46094 8.20215 13.4591 8.20215 18.3735C8.20215 23.2878 12.5113 27.286 17.8079 27.286C19.7626 27.286 21.581 26.7388 23.0997 25.8038L27.2964 29.6986C27.672 30.0471 28.28 30.0471 28.6546 29.6986L30.0129 28.4384C30.3885 28.0899 30.3894 27.5257 30.0139 27.1781ZM10.1233 18.3735C10.1233 14.4421 13.5708 11.2434 17.8079 11.2434C22.045 11.2434 25.4924 14.4421 25.4924 18.3735C25.4924 22.3048 22.045 25.5035 17.8079 25.5035C13.5708 25.5035 10.1233 22.3048 10.1233 18.3735Z" fill="#0278D5"/>
</g>
<defs>
<clipPath id="clip0">
<rect width="23.0537" height="21.3901" fill="white" transform="translate(8.20215 9.46094)"/>
</clipPath>
</defs>
</svg>

<svg viewBox="0 0 32 31"  xmlns="http://www.w3.org/2000/svg"><path d="M0 24.99h3.99V0H0v24.99Zm7.98 0h3.99V7.403H7.98V24.99Zm7.98-10.181v10.18h3.99V14.81h-3.99Z" fill="#0278D5" opacity=".3"/><g clip-path="url(#a)"><path d="m30.014 27.178-4.198-3.895c1.008-1.409 1.598-3.096 1.598-4.91 0-4.914-4.31-8.912-9.606-8.912-5.297 0-9.606 3.998-9.606 8.912 0 4.915 4.31 8.913 9.606 8.913 1.955 0 3.773-.547 5.292-1.482l4.196 3.895c.376.348.984.348 1.359 0l1.358-1.26a.846.846 0 0 0 0-1.26Zm-19.89-8.805c0-3.93 3.447-7.13 7.684-7.13s7.684 3.2 7.684 7.13c0 3.932-3.447 7.13-7.684 7.13s-7.685-3.198-7.685-7.13Z" fill="#0278D5"/></g><defs><clipPath id="a"><path fill="#fff" transform="translate(8.202 9.46)" d="M0 0h23.054v21.39H0z"/></clipPath></defs></svg>
